X: 1872
T: Tez Geçse de Her Sevgide...
C: Selahattin İnal
O: Turkey
F: http://compmusic.upf.edu/node/140
N: huseyni--sarki--sofyan--tez_gecse_de--selahattin_inal
N: makam= huseyni
N: form= sarki
N: usul= sofyan = 4/4
M: 4/4
L: 1/16
K: C _2/4B ^3/4f  
Q: 1/4=78
%%MIDI tuningsystem comma53
A4 d4 e4 a4  | z2g2 f2e2 dc2d cBAG  | \
w:  ARANAĞME  |   | 
A4 d4 e4 a4  | z2g2 f2e2 zgfe d4  | 
w:   |   | 
g2f2 e2d2 ^1/4f2e2 d2c2  | e2d2 c2B2 d2c2 B2A2  | \
w:   |   | 
zA2B c2d2 e2f2 g2a2  | 
w:   | 
z2a4g2 zagf zg^2/4fe  | z=fed zedc zdcB zcBA  | 
w:   |   | 
G2c2 B2e2 zdcB A4  | A4 e4 gfe4z2  | \
w:   |  Tez  geç se  *  de   | 
e4 =f3/2e/f2 d2c4z2  | 
w:  her  sev *  *  gi de   | 
B4 {e}d3/2c/d2 B2cd cBBA  | A8 G4 A4  | \
w:  bin  *  ha *  *  tı ra  *  var  |  dır   SAZ  | 
d4 f3/2e/f2 g2a2 g=ffe  | 
w:  bin  ha *  *  tı ra  var  | 
e12 z4  | de2a g=fed cd2e cBAG  | A2d2 f2a2 g=fed cBA2  | 
w:  dır    |  SAZ  |   | 
A4 e4 gfe4z2  | e4 =f3/2e/f2 d2c4z2  | \
w:  Tez  geç se  *  de   |  her  sev *  *  gi de   | 
B4 {e}d3/2c/d2 B2cd cBBA  | 
w:  bin  *  ha *  *  tı ra  *  var  | 
A8 G4 A4  | d4 f3/2e/f2 g2a2 g=ffe  | \
w:  dır   SAZ  |  bin  ha *  *  tı ra  var  | 
e12 z4  | de2a g=fed cd2e cBAG  | 
w:  dır    |  SAZ  | 
A2d2 f2a2 g=fed cde^3/4f  | g3/2f/g2 f3e e2f2 g2^2/4fe  | 
w:   |  Sev *  *  da  *  de ni len   | 
d4 zdef g2=fe d4  | e2dc c4 a4 g=fed  | \
w:  şey  SAZ  |  ya şa *  yan   | 
g3/2f/g2 e2d2 dccB c4  | 
w:  ha *  *  tı ra lar *  *  *  dır    | 
g3/2f/g2 e2d2 dccB c4  | d4 g4 B2cd cBBA  | \
w:  SAZ  |  Sev da  de ni *  len   | 
A2d6 d2ed cBAG  | 
w:  *  şey   | 
A2B2 c4 A2B2 c4  | B2c2 d4 B2c2 d4  | \
w:  ya şa yan  SAZ  |  ya şa yan  SAZ  | 
d2d2 g3/2f/g2 g4 =f2e2  | d2cB B2cd ed2c cBBA  | 
w:  ya şa yan   |  ha *  *  tı ra *  lar  | 
A12 z4  | de2a g=fed cd2e cBAG  | A2d2 f2a2 z_bag fga_2/4b  | 
w:  dır    |  SAZ  |   | 
c'2c'4b2 c'_3/4bba a4  | a2_b4a2 aggf g4  | \
w:  *  Sev *  mek  *  *  *  de   |  se vil *  mek  *  *  *  de   | 
f2g6 _bag=f _1/4e^de2  | 
w:  ba har   | 
f2g2 a2c'2 _baga f_3/4ed2  | a2a2 g2f2 _3/4e2fg feed  | 
w:  ba har  *  *  öm *  *  *  rü   |  ka dar  | 
d12 z4  | de2a g=fed cd2e cBAG  | A2d2 f2a2 g=fed cde2  | 
w:  dır    |  SAZ  |   | 
g3/2f/g2 f3e e2f2 g2^2/4fe  | d4 zdef g2=fe d4  | \
w:  Sev *  *  da  *  de ni len   |  şey  SAZ  | 
e2dc c4 a4 g=fed  | 
w:  ya şa *  yan   | 
g3/2f/g2 e2d2 dccB c4  | g3/2f/g2 e2d2 dccB c4  | \
w:  ha *  *  tı ra lar *  *  *  dır    |  SAZ  | 
d4 g4 B2cd cBBA  | 
w:  Sev da  de ni *  len   | 
A2d6 d2ed cBAG  | A2B2 c4 A2B2 c4  | \
w:  *  şey   |  ya şa yan  SAZ  | 
B2c2 d4 B2c2 d4  | 
w:  ya şa yan  SAZ  | 
d2d2 g3/2f/g2 g4 =f2e2  | d2cB B2cd ed2c cBBA  | 
w:  ya şa yan   |  ha *  *  tı ra *  lar  | 
A12 z4  | |


